!!!COM:	Bach, Johann Sebastian
!!!CDT:	1685/02/21/-1750/07/28/
!!!OTL@@DE:	Nun lob, mein Seel, den Herren
!!!SCT:	BWV 29/8
!!!PC#:	116
!!!AGN:	chorale
**kern	**kern	**kern	**kern
*ICvox	*ICvox	*ICvox	*ICvox
*Ibass	*Itenor	*Ialto	*Isoprn
*I"Bass	*I"Tenor	*I"Alto	*I"Soprano
*>[A,A,B]	*>[A,A,B]	*>[A,A,B]	*>[A,A,B]
*>norep[A,B]	*>norep[A,B]	*>norep[A,B]	*>norep[A,B]
*>A	*>A	*>A	*>A
*clefF4	*clefGv2	*clefG2	*clefG2
*k[f#c#]	*k[f#c#]	*k[f#c#]	*k[f#c#]
*D:	*D:	*D:	*D:
*M3/4	*M3/4	*M3/4	*M3/4
*MM100	*MM100	*MM100	*MM100
8dL	4f#	4a	4dd
8c#J	.	.	.
=1	=1	=1	=1
4B	2f#	4b	2dd
2F#	.	4a	.
.	8f#L	4a	4cc#
.	8eJ	.	.
=2	=2	=2	=2
8GL	4d	4a	2b
8F#J	.	.	.
4E	8eL	4g	.
.	8dJ	.	.
4F#	4c#	8aL	4a
.	.	8gJ	.
=3	=3	=3	=3
8BL	2d	4f#	4dd
8AJ	.	.	.
4G	.	4b	2ee
4A	4c#	4a	.
=4	=4	=4	=4
2D;	2d;	2a;	2ff#;
4D	4d	4a	4ff#
=5	=5	=5	=5
4.d	2d	2a	8ff#L
.	.	.	8eeJ
.	.	.	2ff#
8c#L	.	.	.
8B	4c#	4cc#	.
8A#J	.	.	.
=6	=6	=6	=6
8BL	2d	4f#	2ff#
8AnXJ	.	.	.
8GL	.	4b	.
8F#J	.	.	.
8GL	4c#	4e	4ee
8EJ	.	.	.
=7	=7	=7	=7
4F#	2d	4a	8ddL
.	.	.	8eeJ
4G	.	4b	2ee
4A	4c#	8aL	.
.	.	8eJ	.
=8	=8	=8	=8
2D;	2A;	2f#;	2dd;
=:|!	=:|!	=:|!	=:|!
*>B	*>B	*>B	*>B
4F#	4d	4a	4dd
=9	=9	=9	=9
8GL	4g	4b	4dd
8AJ	.	.	.
8GL	4c#	4a	4ee
8F#J	.	.	.
8EL	4d	4a	4ff#
8DJ	.	.	.
=10	=10	=10	=10
2A	4d	8aL	2ee
.	.	8bJ	.
.	4c#	8aL	.
.	.	8gJ	.
4A#	4c#	4f#	8ff#L
.	.	.	8eeJ
=11	=11	=11	=11
4B	2B	4f#	8ddL
.	.	.	8eeJ
4E	.	8gL	2cc#
.	.	8f#J	.
4F#	4A#	8eL	.
.	.	8f#J	.
=12	=12	=12	=12
2BB;	2B;	2d;	2b;
4C#	8G#L	4e	4ee
.	8AJ	.	.
=13	=13	=13	=13
8G#L	8BL	2e	4ee
8EJ	8G#XJ	.	.
8F#L	8AL	.	4dd
8G#J	8BJ	.	.
8AL	8c#L	4e	4cc#
8G#J	8BJ	.	.
=14	=14	=14	=14
8F#L	4A	2a	8ddL
8EJ	.	.	8cc#J
4D	4f#	.	2b
4E	8eL	4g#	.
.	8dJ	.	.
=15	=15	=15	=15
2AA;	2c#;	2e;	2a;
8AL	8c#L	4e	4a
8GnXJ	8BJ	.	.
=16	=16	=16	=16
4F#	4A	8dL	2dd
.	.	8eJ	.
8BL	[2d	4f#	.
8AJ	.	.	.
8GL	.	4b	4dd
8F#J	.	.	.
=17	=17	=17	=17
8GL	4d]	4b	2ee
8EJ	.	.	.
8AL	8c#L	4a	.
8GJ	8BJ	.	.
8F#L	4c#	4a	4ee
8EJ	.	.	.
=18	=18	=18	=18
8DL	4d	[2.a	4ff#
8EJ	.	.	.
8DL	4A	.	4ee
8C#J	.	.	.
8DL	4d	.	4ff#
8F#J	.	.	.
=19	=19	=19	=19
2G;	2B;	4a]	2dd;
.	.	4g;	.
8GL	4B	8gL	4dd
8F#J	.	8aJ	.
=20	=20	=20	=20
4E	2e	4b	2gg
8F#L	.	8aL	.
8GJ	.	8gJ	.
8AL	4e	8ccL	4gg
8BJ	.	8bJ	.
=21	=21	=21	=21
4c	2e	8aL	8ff#L
.	.	8gJ	8eeJ
4A	.	4cc	2ff#
4B	4d#	8bL	.
.	.	8aJ	.
=22	=22	=22	=22
2E;	2B;	2g;	2ee;
4A	4c#X	4a	4ee
=23	=23	=23	=23
8dL	2d	4a	2ff#
8c#J	.	.	.
8BL	.	[2b	.
8AJ	.	.	.
8GL	4d	.	4ff#
8F#J	.	.	.
=24	=24	=24	=24
8EL	4G	4b]	2gg
8DJ	.	.	.
8CL	[2e	8aL	.
8BBJ	.	8gJ	.
8AAL	.	8ccL	4gg
8GGJ	.	8bJ	.
=25	=25	=25	=25
4FF#	4e]	8aL	4.aa
.	.	8gJ	.
4F#	4.d	[2a	.
.	.	.	8ggL
4D	.	.	8ff#
.	8c	.	8eeJ
!! 5-voice texture on first beat in this measure in Edition Breitkopf version:
!!Bass2	Bass1	Tenor	Alto	Soprano
!!=25	=25	=25	=25
!!4FF#\	8F#\L	4e]	8a\L	4.aa/
!!.	8G\J	.	8g\J	.
!!8F#\L	4.d/	[2a\	.
!!8E\J	.	.	8gg/L
!!4D\	.	.	8ff#/
!!.	8c/	.	8ee/J
=26	=26	=26	=26
2G;	2B;	4a]	2dd;
.	.	4g;	.
4d	8dL	4a	4ff#
.	8c#XJ	.	.
=27	=27	=27	=27
8G#L	4B	2b	4ee
8EJ	.	.	.
8F#L	2e	.	4dd
8G#J	.	.	.
8AL	.	4a	4cc#
8G#J	.	.	.
=28	=28	=28	=28
8F#L	8dL	2a	8ddL
8EJ	8eJ	.	8cc#J
4D	4f#	.	2b
4E	8eL	4g#	.
.	8dJ	.	.
=29	=29	=29	=29
2AA;	2c#;	2e;	2a;
8AL	4c#	4e	4a
8G#J	.	.	.
=30	=30	=30	=30
8F#L	4c#	8aL	2dd
8EJ	.	8g#J	.
8F#L	4B	8aL	.
8G#J	.	8bJ	.
4A	4A	4e	4cc#
=31	=31	=31	=31
8D#L	4A	4f#	2b
8C#J	.	.	.
8D#L	4G#	4c#	.
8E#J	.	.	.
8F#L	4A	8c#L	4a
8EJ	.	8dnXJ	.
=32	=32	=32	=32
8DnXL	2A	4e	4ee
8C#J	.	.	.
4D	.	2a	2ff#
4DD	4d	.	.
=33	=33	=33	=33
2AA;	2c#;	2a;	2ee;
8DL	4d	4a	4ff#
8C#J	.	.	.
=34	=34	=34	=34
8BBL	2d	4b	4gg
8AAJ	.	.	.
8BBL	.	4a	4ff#
8DJ	.	.	.
8C#L	4A	4g	4ee
8EJ	.	.	.
=35	=35	=35	=35
4D	2d	4f#	8ff#L
.	.	.	8ggJ
4GG	.	8gL	2ee
.	.	8f#J	.
4AA	4c#	4e	.
=36	=36	=36	=36
2DD;	2A;	2f#;	2dd;
==	==	==	==
*-	*-	*-	*-
!!!hum2abc: -Q ''
!!!title: @{PC#}. @{OTL@@DE}
!!!YOR1: 371 vierstimmige Choralges&auml;nge von Johann Sebastian Bach, 
!!!YOR2: 4th ed. by Alfred D&ouml;rffel (Leipzig: Breitkopf und H&auml;rtel, 
!!!YOR2: c.1875). 178 pp. Plate "V.A.10".  reprint: J.S. Bach, 371 Four-Part 
!!!YOR4: Chorales (New York: Associated Music Publishers, Inc., c.1940).
!!!SMS: B&H, 4th ed, Alfred D&ouml;rffel, c.1875, plate V.A.10
!!!EED:  Craig Stuart Sapp
!!!EEV:  2009/05/22
